X: 39406
T: Tap The Barrel
R: reel
M: 4/4
K: Dmixolydian
|:D2 (3FED AD (3FED|cAGE CEGE|D2 (3FED AD (3FED|cAGE AD D2|
D2 (3FED AD (3FED|cAGE CEGE|D2 (3FED AD (3FED|cAGE AD (3DDD:|
|:d3g fafd|cdef g2 fe|d3g fafd|cAGE ED D2|
d3g fafd|(3Bcd ef g2 fe|fafd (3efg ed|cAGE ED (3DDD:|

